icons/freemarker.svg

<svg width="16" height="16" viewBox="0 0 16 16" fill="none" xmlns="http://www.w3.org/2000/svg">
<path fill-rule="evenodd" clip-rule="evenodd" d="M4.11194 10.5077H1.98229L2.33723 8.83589H4.46688L4.99928 6.3282H2.86963L3.22457 4.6564H5.35421L5.70915 2.98459H7.83877L7.48383 4.6564H10.6783L10.6783 4.65639H12.8079L11.3881 11.3436H13.5177L13.1628 13.0154H14.2276V13.0154H9.96839V13.0154H8.90357L9.43598 10.5077H9.43595L9.79089 8.83589H9.79091L10.3233 6.3282L10.3233 6.3282H9.25848L7.12889 6.3282L6.59649 8.83589H8.72608L8.37114 10.5077H6.24156L5.70915 13.0154H3.57954L4.11194 10.5077Z" fill="#3E97FF"/>
</svg>

<svg xmlns="http://www.w3.org/2000/svg" width="16" height="16" fill="none"><path fill="#3E97FF" fill-rule="evenodd" d="M4.112 10.508h-2.13l.355-1.672h2.13l.532-2.508H2.87l.356-1.672h2.13l.354-1.671h2.13l-.355 1.671h5.324l-1.42 6.688h2.13l-.355 1.671h1.065-5.324l.532-2.507.355-1.672.532-2.508H7.128l-.532 2.508h2.13l-.355 1.672h-2.13l-.532 2.507H3.58l.533-2.507Z" clip-rule="evenodd"/></svg>
